X:4
T:No.24 Jenny Picking Cockles
C:reel
M:4/4
L:1/8
K:G
fagf dcc2|Bcde =fefa|
ggfg dccc|Ac=fc AGGF|
Ggfg dcc2|Bcde =fefa|
ggfg dccc|Ac=fc AGGF||
Gega bgag|fd (3fga fdgf|
dega bgag|fdcA BGGF|
Gega bgag|fd (3fga fdga|
bggf gbag|fdcA BGBd||
